X:1
T: Crabs in the Skillet
C:
R:Jig
Q:180
K:Gm
M:6/8
L:1/16
D2|G2A2B2 d4_G2|G4A2 B4c2|d2e2d2 c2B2A2|d2c2B2 A2G2_G2|G2A2B2 d4_G2|G4A2 B4d2|c2A2c2 f2e2d2|c2A2F2 F4D2|
G2A2B2 d4_G2|G4A2 B4c2|d2e2d2 c2B2A2|d2c2B2 A2G2_G2|G2A2B2 d4_G2|G4A2 B4d2|c2A2F2 c2A2_G2|G6 G4d2|
g2a2g2 g2f2=e2|f2g2f2 f2=e2d2|c2d2=e2 f2e2d2|c2A2F2 F6|g2a2g2 g2f2e2|f2g2f2 f2e2d2|c2d2e2 f2e2f2|c2A2F2 F6|
G4z2 A4z2|B4z2 c4z2|d2e2d2 c2B2A2|d2c2B2 A2G2_G2|G4z2 A4z2|B4z2 c4z2|d2B2G2 d2A2_G2|G6 G4||
